Newaita-dark/devices/16/media-flash-cf.svg

<svg height="16pt" viewBox="0 0 16 16" width="16pt" xmlns="http://www.w3.org/2000/svg" xmlns:xlink="http://www.w3.org/1999/xlink"><linearGradient id="a" gradientUnits="userSpaceOnUse" x1="7.938261" x2="7.938261" y1="13.9911025" y2="14.65262443751"><stop offset="0" stop-opacity=".27451"/><stop offset="1" stop-opacity="0"/></linearGradient><linearGradient id="b"><stop offset="0" stop-opacity=".313725"/><stop offset=".222222" stop-opacity=".27451"/><stop offset="1" stop-opacity="0"/></linearGradient><radialGradient id="c" cx="450.90894" cy="189.57936" gradientTransform="matrix(.00000009 -.0390662 -.0703192 -.00000005 25.238422 31.771802)" gradientUnits="userSpaceOnUse" r="21.166656" xlink:href="#b"/><radialGradient id="d" cx="450.90894" cy="189.57936" gradientTransform="matrix(-.00000009 .0390662 .0703192 .00000005 -9.361906 -3.789605)" gradientUnits="userSpaceOnUse" r="21.166656" xlink:href="#b"/><radialGradient id="e" cx="450.90894" cy="189.57936" gradientTransform="matrix(-.00000009 -.0390662 .0703192 -.00000005 -9.361906 31.771802)" gradientUnits="userSpaceOnUse" r="21.166656" xlink:href="#b"/><radialGradient id="f" cx="450.90894" cy="189.57936" gradientTransform="matrix(.00000009 .0390662 -.0703192 .00000005 25.238421 -3.789605)" gradientUnits="userSpaceOnUse" r="21.166656" xlink:href="#b"/><linearGradient id="g" gradientUnits="userSpaceOnUse" x1="7.938262" x2="7.938262" y1="14.0169675" y2="1.44805256249"><stop offset="0" stop-color="#424242"/><stop offset="1" stop-color="#616161"/></linearGradient><linearGradient id="h" gradientUnits="userSpaceOnUse" x1="7.938262" x2="7.938262" y1="14.0169675" y2="1.44805256249"><stop offset="0" stop-color="#bdbdbd"/><stop offset="1" stop-color="#e0e0e0"/></linearGradient><linearGradient id="i" gradientUnits="userSpaceOnUse" x1="6.61521843751" x2="6.61521843751" y1="14.0169675" y2="1.44805256249"><stop offset="0" stop-color="#f44336"/><stop offset="1" stop-color="#ef5350"/></linearGradient><linearGradient id="j" gradientUnits="userSpaceOnUse" x1="7.938262" x2="7.938262" y1="14.0169675" y2="1.44805256249"><stop offset="0" stop-color="#ffca28"/><stop offset="1" stop-color="#ffd54f"/></linearGradient><path d="m3.804688 14.003906h8.269531v.675782h-8.269531zm0 0" fill="url(#a)"/><path d="m12.074219 13.992188h1.320312v-.664063h-1.320312zm0 0" fill="url(#c)"/><path d="m3.804688 13.992188h-1.324219v.660156h1.324219zm0 0" fill="url(#d)"/><path d="m3.804688 13.992188h-1.324219v-.664063h1.324219zm0 0" fill="url(#e)"/><path d="m12.074219 13.992188h1.320312v.660156h-1.320312zm0 0" fill="url(#f)"/><path d="m3.308594 1.449219h9.261718c.363282 0 .660157.296875.660157.660156v11.246094c0 .367187-.296875.660156-.660157.660156h-9.261718c-.367188 0-.664063-.292969-.664063-.660156v-11.246094c0-.363281.296875-.660156.664063-.660156zm0 0" fill="url(#g)"/><path d="m7.9375 2.113281c-.175781 0-.339844.070313-.464844.191407l-.136718.140624h-3.367188c-.363281 0-.65625.292969-.65625.65625v9.261719c0 .363281.292969.660157.65625.660157h3.367188l.136718.136718c.125.121094.289063.191406.464844.191406h3.96875c.363281 0 .660156-.292968.660156-.65625v-9.925781c0-.363281-.296875-.65625-.660156-.65625zm0 0" fill="url(#h)"/><path d="m4.960938 2.441406h2.316406v10.582032h-2.316406zm0 0" fill="url(#i)"/><path d="m3.96875 2.445312c-.363281 0-.65625.292969-.65625.65625v9.261719c0 .363281.292969.660157.65625.660157h.992188v-10.578126zm0 0" fill="url(#j)"/><g fill="none" stroke="#212121" stroke-linecap="round" stroke-linejoin="round"><path d="m253.975747-147.381457c-5.624463 0-10.873962 2.249785-14.87358 6.124415l-4.374582 4.49957h-107.739712c-11.62389 0-20.997995 9.374105-20.997995 20.997995v296.3467c0 11.62389 9.374105 21.122983 20.997995 21.122983h107.739712l4.374582 4.374582c3.999618 3.87463 9.249117 6.124416 14.87358 6.124416h126.987873c11.62389 0 21.122983-9.374105 21.122983-20.997995v-317.594671c0-11.62389-9.499093-20.997995-21.122983-20.997995zm0 0" stroke-width="3" transform="matrix(.031253 0 0 .031253 0 6.719392)"/><path d="m158.734842-136.88246h74.117922v338.592666h-74.117922zm0 0" stroke-width="3" transform="matrix(.031253 0 0 .031253 0 6.719392)"/><path d="m479.954173 295.719795c-43.932813 0-79.362501 35.429688-79.362501 79.362501v1120.050535c0 43.932813 35.429688 79.834897 79.362501 79.834897h119.988543v-1279.247933zm0 0" stroke-width="11.338583" transform="scale(.00826902)"/></g><path d="m3.308594 1.449219c-.367188 0-.664063.292969-.664063.660156v.164063c0-.363282.296875-.660157.664063-.660157h9.261718c.363282 0 .660157.296875.660157.660157v-.164063c0-.367187-.296875-.660156-.660157-.660156zm0 0" fill="#fff" fill-opacity=".313725"/><path d="m2.644531 13.105469v.25c0 .367187.296875.660156.664063.660156h9.261718c.363282 0 .660157-.292969.660157-.660156v-.25c0 .367187-.296875.664062-.660157.664062h-9.261718c-.367188 0-.664063-.296875-.664063-.664062zm0 0" fill-opacity=".235294"/><path d="m105.86489-168.629428h296.346701c11.62389 0 21.122983 9.499093 21.122983 21.122983v359.840637c0 11.748878-9.499093 21.122982-21.122983 21.122982h-296.346701c-11.748878 0-21.247971-9.374104-21.247971-21.122982v-359.840637c0-11.62389 9.499093-21.122983 21.247971-21.122983zm0 0" fill="none" stroke="#212121" stroke-linecap="round" stroke-linejoin="round" stroke-width="3" transform="matrix(.031253 0 0 .031253 0 6.719392)"/></svg>

<?xml version="1.0" encoding="UTF-8"?>
<svg xmlns="http://www.w3.org/2000/svg" xmlns:xlink="http://www.w3.org/1999/xlink" width="16pt" height="16pt" viewBox="0 0 16 16" version="1.1">
<defs>
<linearGradient id="linear0" gradientUnits="userSpaceOnUse" x1="254" y1="233.5" x2="254" y2="254.66667" gradientTransform="matrix(0.031253,0,0,0.031253,-0.00000125012,6.693527)">
<stop offset="0" style="stop-color:rgb(0%,0%,0%);stop-opacity:0.27451;"/>
<stop offset="1" style="stop-color:rgb(0%,0%,0%);stop-opacity:0;"/>
</linearGradient>
<radialGradient id="radial0" gradientUnits="userSpaceOnUse" cx="450.90894" cy="189.57936" fx="450.90894" fy="189.57936" r="21.166656" gradientTransform="matrix(0.0000000870852,-0.0390662,-0.0703192,-0.0000000507693,25.238422,31.771802)">
<stop offset="0" style="stop-color:rgb(0%,0%,0%);stop-opacity:0.313725;"/>
<stop offset="0.222222" style="stop-color:rgb(0%,0%,0%);stop-opacity:0.27451;"/>
<stop offset="1" style="stop-color:rgb(0%,0%,0%);stop-opacity:0;"/>
</radialGradient>
<radialGradient id="radial1" gradientUnits="userSpaceOnUse" cx="450.90894" cy="189.57936" fx="450.90894" fy="189.57936" r="21.166656" gradientTransform="matrix(-0.0000000870852,0.0390662,0.0703192,0.0000000507693,-9.361906,-3.789605)">
<stop offset="0" style="stop-color:rgb(0%,0%,0%);stop-opacity:0.313725;"/>
<stop offset="0.222222" style="stop-color:rgb(0%,0%,0%);stop-opacity:0.27451;"/>
<stop offset="1" style="stop-color:rgb(0%,0%,0%);stop-opacity:0;"/>
</radialGradient>
<radialGradient id="radial2" gradientUnits="userSpaceOnUse" cx="450.90894" cy="189.57936" fx="450.90894" fy="189.57936" r="21.166656" gradientTransform="matrix(-0.0000000870852,-0.0390662,0.0703192,-0.0000000507693,-9.361906,31.771802)">
<stop offset="0" style="stop-color:rgb(0%,0%,0%);stop-opacity:0.313725;"/>
<stop offset="0.222222" style="stop-color:rgb(0%,0%,0%);stop-opacity:0.27451;"/>
<stop offset="1" style="stop-color:rgb(0%,0%,0%);stop-opacity:0;"/>
</radialGradient>
<radialGradient id="radial3" gradientUnits="userSpaceOnUse" cx="450.90894" cy="189.57936" fx="450.90894" fy="189.57936" r="21.166656" gradientTransform="matrix(0.0000000870852,0.0390662,-0.0703192,0.0000000507693,25.238421,-3.789605)">
<stop offset="0" style="stop-color:rgb(0%,0%,0%);stop-opacity:0.313725;"/>
<stop offset="0.222222" style="stop-color:rgb(0%,0%,0%);stop-opacity:0.27451;"/>
<stop offset="1" style="stop-color:rgb(0%,0%,0%);stop-opacity:0;"/>
</radialGradient>
<linearGradient id="linear1" gradientUnits="userSpaceOnUse" x1="254" y1="233.5" x2="254" y2="-168.66667" gradientTransform="matrix(0.031253,0,0,0.031253,0,6.719392)">
<stop offset="0" style="stop-color:rgb(25.882353%,25.882353%,25.882353%);stop-opacity:1;"/>
<stop offset="1" style="stop-color:rgb(38.039216%,38.039216%,38.039216%);stop-opacity:1;"/>
</linearGradient>
<linearGradient id="linear2" gradientUnits="userSpaceOnUse" x1="254" y1="233.5" x2="254" y2="-168.66667" gradientTransform="matrix(0.031253,0,0,0.031253,0,6.719392)">
<stop offset="0" style="stop-color:rgb(74.117647%,74.117647%,74.117647%);stop-opacity:1;"/>
<stop offset="1" style="stop-color:rgb(87.843137%,87.843137%,87.843137%);stop-opacity:1;"/>
</linearGradient>
<linearGradient id="linear3" gradientUnits="userSpaceOnUse" x1="211.66667" y1="233.5" x2="211.66667" y2="-168.66667" gradientTransform="matrix(0.031253,0,0,0.031253,0,6.719392)">
<stop offset="0" style="stop-color:rgb(95.686275%,26.27451%,21.176471%);stop-opacity:1;"/>
<stop offset="1" style="stop-color:rgb(93.72549%,32.54902%,31.372549%);stop-opacity:1;"/>
</linearGradient>
<linearGradient id="linear4" gradientUnits="userSpaceOnUse" x1="254" y1="233.5" x2="254" y2="-168.66667" gradientTransform="matrix(0.031253,0,0,0.031253,0,6.719392)">
<stop offset="0" style="stop-color:rgb(100%,79.215686%,15.686275%);stop-opacity:1;"/>
<stop offset="1" style="stop-color:rgb(100%,83.529412%,30.980392%);stop-opacity:1;"/>
</linearGradient>
</defs>
<g id="surface1">
<path style=" stroke:none;fill-rule:nonzero;fill:url(#linear0);" d="M 3.804688 14.003906 L 12.074219 14.003906 L 12.074219 14.679688 L 3.804688 14.679688 Z M 3.804688 14.003906 "/>
<path style=" stroke:none;fill-rule:nonzero;fill:url(#radial0);" d="M 12.074219 13.992188 L 13.394531 13.992188 L 13.394531 13.328125 L 12.074219 13.328125 Z M 12.074219 13.992188 "/>
<path style=" stroke:none;fill-rule:nonzero;fill:url(#radial1);" d="M 3.804688 13.992188 L 2.480469 13.992188 L 2.480469 14.652344 L 3.804688 14.652344 Z M 3.804688 13.992188 "/>
<path style=" stroke:none;fill-rule:nonzero;fill:url(#radial2);" d="M 3.804688 13.992188 L 2.480469 13.992188 L 2.480469 13.328125 L 3.804688 13.328125 Z M 3.804688 13.992188 "/>
<path style=" stroke:none;fill-rule:nonzero;fill:url(#radial3);" d="M 12.074219 13.992188 L 13.394531 13.992188 L 13.394531 14.652344 L 12.074219 14.652344 Z M 12.074219 13.992188 "/>
<path style=" stroke:none;fill-rule:nonzero;fill:url(#linear1);" d="M 3.308594 1.449219 L 12.570312 1.449219 C 12.933594 1.449219 13.230469 1.746094 13.230469 2.109375 L 13.230469 13.355469 C 13.230469 13.722656 12.933594 14.015625 12.570312 14.015625 L 3.308594 14.015625 C 2.941406 14.015625 2.644531 13.722656 2.644531 13.355469 L 2.644531 2.109375 C 2.644531 1.746094 2.941406 1.449219 3.308594 1.449219 Z M 3.308594 1.449219 "/>
<path style=" stroke:none;fill-rule:nonzero;fill:url(#linear2);" d="M 7.9375 2.113281 C 7.761719 2.113281 7.597656 2.183594 7.472656 2.304688 L 7.335938 2.445312 L 3.96875 2.445312 C 3.605469 2.445312 3.3125 2.738281 3.3125 3.101562 L 3.3125 12.363281 C 3.3125 12.726562 3.605469 13.023438 3.96875 13.023438 L 7.335938 13.023438 L 7.472656 13.160156 C 7.597656 13.28125 7.761719 13.351562 7.9375 13.351562 L 11.90625 13.351562 C 12.269531 13.351562 12.566406 13.058594 12.566406 12.695312 L 12.566406 2.769531 C 12.566406 2.40625 12.269531 2.113281 11.90625 2.113281 Z M 7.9375 2.113281 "/>
<path style=" stroke:none;fill-rule:nonzero;fill:url(#linear3);" d="M 4.960938 2.441406 L 7.277344 2.441406 L 7.277344 13.023438 L 4.960938 13.023438 Z M 4.960938 2.441406 "/>
<path style=" stroke:none;fill-rule:nonzero;fill:url(#linear4);" d="M 3.96875 2.445312 C 3.605469 2.445312 3.3125 2.738281 3.3125 3.101562 L 3.3125 12.363281 C 3.3125 12.726562 3.605469 13.023438 3.96875 13.023438 L 4.960938 13.023438 L 4.960938 2.445312 Z M 3.96875 2.445312 "/>
<path style="fill:none;stroke-width:3;stroke-linecap:round;stroke-linejoin:round;stroke:rgb(12.941176%,12.941176%,12.941176%);stroke-opacity:1;stroke-miterlimit:4;" d="M 253.975747 -147.381457 C 248.351284 -147.381457 243.101785 -145.131672 239.102167 -141.257042 L 234.727585 -136.757472 L 126.987873 -136.757472 C 115.363983 -136.757472 105.989878 -127.383367 105.989878 -115.759477 L 105.989878 180.587223 C 105.989878 192.211113 115.363983 201.710206 126.987873 201.710206 L 234.727585 201.710206 L 239.102167 206.084788 C 243.101785 209.959418 248.351284 212.209204 253.975747 212.209204 L 380.96362 212.209204 C 392.58751 212.209204 402.086603 202.835099 402.086603 191.211209 L 402.086603 -126.383462 C 402.086603 -138.007352 392.58751 -147.381457 380.96362 -147.381457 Z M 253.975747 -147.381457 " transform="matrix(0.031253,0,0,0.031253,0,6.719392)"/>
<path style="fill:none;stroke-width:3;stroke-linecap:round;stroke-linejoin:round;stroke:rgb(12.941176%,12.941176%,12.941176%);stroke-opacity:1;stroke-miterlimit:4;" d="M 158.734842 -136.88246 L 232.852764 -136.88246 L 232.852764 201.710206 L 158.734842 201.710206 Z M 158.734842 -136.88246 " transform="matrix(0.031253,0,0,0.031253,0,6.719392)"/>
<path style="fill:none;stroke-width:11.338583;stroke-linecap:round;stroke-linejoin:round;stroke:rgb(12.941176%,12.941176%,12.941176%);stroke-opacity:1;stroke-miterlimit:4;" d="M 479.954173 295.719795 C 436.02136 295.719795 400.591672 331.149483 400.591672 375.082296 L 400.591672 1495.132831 C 400.591672 1539.065644 436.02136 1574.967728 479.954173 1574.967728 L 599.942716 1574.967728 L 599.942716 295.719795 Z M 479.954173 295.719795 " transform="matrix(0.00826902,0,0,0.00826902,0,0)"/>
<path style=" stroke:none;fill-rule:nonzero;fill:rgb(100%,100%,100%);fill-opacity:0.313725;" d="M 3.308594 1.449219 C 2.941406 1.449219 2.644531 1.742188 2.644531 2.109375 L 2.644531 2.273438 C 2.644531 1.910156 2.941406 1.613281 3.308594 1.613281 L 12.570312 1.613281 C 12.933594 1.613281 13.230469 1.910156 13.230469 2.273438 L 13.230469 2.109375 C 13.230469 1.742188 12.933594 1.449219 12.570312 1.449219 Z M 3.308594 1.449219 "/>
<path style=" stroke:none;fill-rule:nonzero;fill:rgb(0%,0%,0%);fill-opacity:0.235294;" d="M 2.644531 13.105469 L 2.644531 13.355469 C 2.644531 13.722656 2.941406 14.015625 3.308594 14.015625 L 12.570312 14.015625 C 12.933594 14.015625 13.230469 13.722656 13.230469 13.355469 L 13.230469 13.105469 C 13.230469 13.472656 12.933594 13.769531 12.570312 13.769531 L 3.308594 13.769531 C 2.941406 13.769531 2.644531 13.472656 2.644531 13.105469 Z M 2.644531 13.105469 "/>
<path style="fill:none;stroke-width:3;stroke-linecap:round;stroke-linejoin:round;stroke:rgb(12.941176%,12.941176%,12.941176%);stroke-opacity:1;stroke-miterlimit:4;" d="M 105.86489 -168.629428 L 402.211591 -168.629428 C 413.835481 -168.629428 423.334574 -159.130335 423.334574 -147.506445 L 423.334574 212.334192 C 423.334574 224.08307 413.835481 233.457174 402.211591 233.457174 L 105.86489 233.457174 C 94.116012 233.457174 84.616919 224.08307 84.616919 212.334192 L 84.616919 -147.506445 C 84.616919 -159.130335 94.116012 -168.629428 105.86489 -168.629428 Z M 105.86489 -168.629428 " transform="matrix(0.031253,0,0,0.031253,0,6.719392)"/>
</g>
</svg>
